svg/furkot/icomoon/pencil.svg

<svg viewBox="0 0 512 512" xmlns="http://www.w3.org/2000/svg"><path d="m432 0c44.184 0 80 35.816 80 80 0 18.008-5.952 34.632-16 48l-32 32-112-112 32-32c13.368-10.048 29.992-16 48-16zm-400 368-32 144 144-32 296-296-112-112zm325.792-186.208-224 224-27.576-27.576 224-224z"/></svg>

<svg xmlns="http://www.w3.org/2000/svg" viewBox="0 0 512 512"><path d="M432 0C476.184 0 512 35.816 512 80 512 98.008 506.048 114.632 496 128L464 160 352 48 384 16C397.368 5.952 413.992 0 432 0ZM32 368L0 512 144 480 440 184 328 72 32 368ZM357.792 181.792L133.792 405.792 106.216 378.216 330.216 154.216 357.792 181.792Z"/></svg>
